X: 51
T:Phillibelula
% Nottingham Music Database
P:AAB
S:Trad
M:4/4
L:1/8
R:Hornpipe
K:D
|:fe|"D"dcdB A2GF|"G"EEFG "A7"A2Bc|"D"dBAA "A7"ddec|"D"d2f2 d2:|
|:fe|"D"dcdB A2GF|"G"EEFG "A7"A2Bc|"D"dBAA "A7"ddec|"D"d2f2 d2:|
|:de|"D"f2f2 "Bm"f2gf|"Em"gfe2 "A"e4|"Bm/f+"d2d2 "E7/g+"d2ed|\
"A7"cB"g"A2 "f#"A2"e"Bc|
"D"dd c2/3B2/3A2/3 "G"BcdA|"D"d2/3e2/3d2/3 c2/3B2/3A2/3 "G"Bc"D/f+"df|"Em"e2 e2/3f2/3g2/3 "A7"a2 A2/3B2/3c2/3|\
"D"d2f2 d2:|


